imgs/caution.svg

<svg width="32" height="28" viewBox="0 0 32 28" fill="none" xmlns="http://www.w3.org/2000/svg">
<path d="M31.866 26.4641L16.866 0.464115C16.7711 0.321377 16.6423 0.204315 16.4912 0.123343C16.3402 0.0423708 16.1714 0 16 0C15.8286 0 15.6598 0.0423708 15.5087 0.123343C15.3576 0.204315 15.2289 0.321377 15.134 0.464115L0.133975 26.4641C0.0462073 26.6161 1.11487e-06 26.7886 0 26.9641C-1.11483e-06 27.1396 0.0462029 27.3121 0.133968 27.4641C0.221734 27.6161 0.347968 27.7424 0.499983 27.8301C0.651999 27.9179 0.82444 27.9641 0.999975 27.9641H31C31.1755 27.9641 31.3479 27.9179 31.5 27.8301C31.652 27.7424 31.7782 27.6161 31.866 27.4641C31.9537 27.3121 32 27.1396 32 26.9641C31.9999 26.7886 31.9537 26.6161 31.866 26.4641ZM17.714 8.96411L17 18.9641H15L14.286 8.96411H17.714ZM16 24.9641C15.6483 24.9641 15.3046 24.8598 15.0122 24.6645C14.7198 24.4691 14.4919 24.1914 14.3573 23.8665C14.2227 23.5416 14.1875 23.1841 14.2561 22.8392C14.3247 22.4943 14.4941 22.1775 14.7427 21.9289C14.9914 21.6802 15.3082 21.5109 15.6531 21.4423C15.998 21.3737 16.3555 21.4089 16.6804 21.5435C17.0053 21.678 17.283 21.9059 17.4783 22.1983C17.6737 22.4907 17.778 22.8345 17.778 23.1861C17.778 23.6577 17.5907 24.1099 17.2572 24.4434C16.9238 24.7768 16.4715 24.9641 16 24.9641Z" fill="#EF4273"/>
</svg>

<svg width="32" height="28" fill="none" xmlns="http://www.w3.org/2000/svg"><path d="M31.866 26.464l-15-26a1.04 1.04 0 00-1.732 0l-15 26a1 1 0 00.866 1.5h30a1 1 0 00.866-1.5zm-14.152-17.5l-.714 10h-2l-.714-10h3.428zm-1.714 16a1.778 1.778 0 110-3.557 1.778 1.778 0 010 3.557z" fill="#EF4273"/></svg>
